X:77
T: STUDIO AUF EINER REIS
N: B0564
O: Europa, Mitteleuropa, Deutschland
R: Studenten -, Wander - Lied
M: 2/4
L: 1/16
K: G
 | B3AG2E2 | D2E2D4 |
D2c2A4 | D2B2G4 |
B3AG2E2 | D2E2D4 |
D2c2A2F2 | G4z4 |
A2B2A2B2 | F2B2A4 |
A2A2B2^c2 | d2D2D4 |
D2D2G2G2 | B2B2d4 |
c2D2A4 | B2D2G4 |
D2D2G2G2 | B2B2d4 |
c2D2A2D2 | G4z4

@@@ Tune index: 2295
